Unicodia/Resources/Scripts/11580.svg

<?xml version="1.0" encoding="UTF-8" standalone="no"?>
<!-- Created with Inkscape (http://www.inkscape.org/) -->

<svg
   width="16"
   height="16"
   viewBox="0 0 16 16"
   version="1.1"
   id="svg5"
   inkscape:version="1.2.2 (732a01da63, 2022-12-09)"
   sodipodi:docname="11580.svg"
   inkscape:export-filename="..\0000.png"
   inkscape:export-xdpi="96"
   inkscape:export-ydpi="96"
   xml:space="preserve"
   xmlns:inkscape="http://www.inkscape.org/namespaces/inkscape"
   xmlns:sodipodi="http://sodipodi.sourceforge.net/DTD/sodipodi-0.dtd"
   xmlns="http://www.w3.org/2000/svg"
   xmlns:svg="http://www.w3.org/2000/svg"><sodipodi:namedview
     id="namedview7"
     pagecolor="#ffffff"
     bordercolor="#666666"
     borderopacity="1.0"
     inkscape:pageshadow="2"
     inkscape:pageopacity="0"
     inkscape:pagecheckerboard="0"
     inkscape:document-units="px"
     showgrid="true"
     width="16mm"
     units="px"
     inkscape:zoom="32"
     inkscape:cx="12.328125"
     inkscape:cy="6.53125"
     inkscape:window-width="1680"
     inkscape:window-height="998"
     inkscape:window-x="-8"
     inkscape:window-y="-8"
     inkscape:window-maximized="1"
     inkscape:current-layer="layer1"
     showguides="true"
     inkscape:guide-bbox="true"
     inkscape:snap-bbox="true"
     inkscape:bbox-paths="true"
     inkscape:bbox-nodes="true"
     inkscape:snap-global="true"
     inkscape:showpageshadow="2"
     inkscape:deskcolor="#ffffff"><inkscape:grid
       type="xygrid"
       id="grid828"
       originx="0"
       originy="0" /></sodipodi:namedview><defs
     id="defs2" /><g
     inkscape:label="Layer 1"
     inkscape:groupmode="layer"
     id="layer1"><rect
       style="opacity:1;fill:#ffff83;stroke:none;stroke-width:4.4376;stroke-linejoin:bevel;stop-color:#000000;fill-opacity:1"
       id="rect691"
       width="16"
       height="16"
       x="0"
       y="0" /><path
       d="M 7.2814326,4.1407164 C 4.956421,2.6020982 4.1880114,1.9446737 4.1880114,1.3528182 c 0,-0.1782156 0.07638,-0.3118818 0.2291423,-0.4009991 C 4.6844864,1.117317 4.9709143,1.2573422 5.2764374,1.3719134 5.5055797,1.002746 5.8429345,0.81815278 6.2884826,0.81815278 c 1.0185528,0 1.0755405,0.40099902 2.2532328,0.40099902 0.4434973,0 1.4937696,-0.075859 2.3487096,-0.7256173 l 1.718567,1.2029972 C 11.635231,2.9567018 9,3.1619197 9,4.4462394 V 5 c 1.944159,0.1767424 4.438067,1.6873334 4.856786,3.4180396 C 13.952266,8.8126799 14,9.2518693 14,9.7356077 14,10.9111 13.885429,11.514557 13.885429,12.504411 c 0,0.955076 0.471934,1.537891 0.99295,2.004995 l -0.43919,0.496476 c -1.690371,-1.239603 -2.272327,-2.002456 -2.272327,-3.41804 0,-0.993005 0.11457,-1.449052 0.11457,-2.6542322 0,-2.1911352 -1.245462,-2.6351366 -2.4603387,-2.6351366 -0.2800692,0 -0.5537606,0.019095 -0.8210933,0.057286 V 13.802884 L 8.5226202,13.93655 C 7.6613047,13.458051 5.7744017,12.481642 3.6151556,11.797889 L 1.9347786,10.995891 C 2.6229139,8.6126005 4.1070859,5.6820421 7.2814326,5.095476 Z M 3.8252027,11.110462 c 0.4320669,0.08229 1.688227,0.346324 3.4562299,0.935665 V 6.8522338 C 6.1885498,7.3708993 4.6531321,8.5346424 3.8252027,11.110462 Z"
       id="path446"
       style="fill:#f57900;stroke-width:1"
       sodipodi:nodetypes="csccssccscsssccsssccccccccccc" /></g></svg>

<svg height="16" viewBox="0 0 16 16" width="16" xmlns="http://www.w3.org/2000/svg"><path d="m0 0h16v16h-16z" fill="#ffff83"/><path d="m7.28 4.14c-2.32-1.54-3.09-2.2-3.09-2.79 0-.18.08-.31.23-.4.26.17.55.31.86.42.23-.37.56-.55 1.01-.55 1.02 0 1.08.4 2.25.4.44 0 1.49-.08 2.35-.73l1.72 1.2c-.97 1.27-3.61 1.47-3.61 2.76v.55c1.94.18 4.44 1.69 4.86 3.42.09.39.14.83.14 1.32 0 1.17-.11 1.77-.11 2.76 0 .96.47 1.54.99 2l-.44.5c-1.69-1.24-2.27-2-2.27-3.42 0-.99.11-1.45.11-2.65 0-2.19-1.25-2.64-2.46-2.64-.28 0-.55.02-.82.06v7.45l-.48.14c-.86-.48-2.75-1.46-4.9-2.14l-1.69-.8c.69-2.39 2.18-5.32 5.35-5.9zm-3.45 6.97c.43.08 1.69.35 3.46.94v-5.2c-1.1.52-2.64 1.68-3.46 4.26z" fill="#f57900"/></svg>
